X: 1750
T: Apples In Winter
R: reel
M: 4/4
K: Adorian
|:"Am"e2cA e2cA|"G" G2BE G2G2|"Am" A2AB cBcd|eaag "G"edd2:|
|:"Em"e g{a}g f e g{a}g f|"Am" e a{b}a g e a{b}a g|"Em" e g{a}g f e g{a}g f|
"Am"eaag "G"edd2|"Em" e g{a}g f e g{a}g f|"Am" e a{b}a g "G"e a{b}a g|
"Am":eddc c2cd|eaag "G"edd2:|

